logo/webpack.svg

<?xml version="1.0" encoding="UTF-8"?>
<svg width="256px" height="290px" viewBox="0 0 256 290" version="1.1" xmlns="http://www.w3.org/2000/svg" xmlns:xlink="http://www.w3.org/1999/xlink" preserveAspectRatio="xMidYMid">
	<g>
		<polygon fill="#FFFFFF" points="128 0.0483018868 256 72.4528302 256 217.310189 128 289.714717 0 217.310189 0 72.4528302"></polygon>
		<path d="M233.153208,212.286792 L132.250566,269.427925 L132.250566,224.990189 L195.139623,190.357736 L233.153208,212.286792 Z M240.060377,206.055849 L240.060377,86.6535849 L203.157736,107.954717 L203.157736,184.754717 L240.060377,206.055849 Z M22.4603774,212.286792 L123.363019,269.379623 L123.363019,224.941887 L60.4739623,190.357736 L22.4603774,212.286792 L22.4603774,212.286792 Z M15.5532075,206.055849 L15.5532075,86.6535849 L52.4558491,107.954717 L52.4558491,184.754717 L15.5532075,206.055849 L15.5532075,206.055849 Z M19.8520755,78.925283 L123.363019,20.3833962 L123.363019,63.3720755 L57.0445283,99.84 L56.5132075,100.129811 L19.8520755,78.925283 L19.8520755,78.925283 Z M235.713208,78.925283 L132.250566,20.3833962 L132.250566,63.3720755 L198.520755,99.8883019 L199.052075,100.178113 L235.713208,78.925283 L235.713208,78.925283 Z" fill="#8ED6FB"></path>
		<path d="M123.363019,214.846792 L61.3433962,180.697358 L61.3433962,113.123019 L123.363019,148.914717 L123.363019,214.846792 L123.363019,214.846792 Z M132.250566,214.846792 L194.270189,180.74566 L194.270189,113.123019 L132.250566,148.914717 L132.250566,214.846792 Z M65.4973585,105.298113 L127.806792,71.0520755 L190.067925,105.298113 L127.806792,141.234717 L65.4973585,105.298113 L65.4973585,105.298113 Z" fill="#1C78C0"></path>
	</g>
</svg>

<svg viewBox="0 0 256 290" xmlns="http://www.w3.org/2000/svg"><path fill="#FFF" d="M128 .04l128 72.4 0 144.85 -128 72.4L0 217.28 0 72.42Z"/><path fill="#8ED6FB" d="M233.15 212.28l-100.91 57.14v-44.44l62.88-34.64 38.01 21.92Zm6.9-6.24V86.63l-36.91 21.3v76.8l36.9 21.3Zm-217.6 6.23l100.9 57.09v-44.44l-62.89-34.59 -38.02 21.92v0Zm-6.91-6.24V86.62l36.9 21.3v76.8l-36.91 21.3v0Zm4.29-127.14l103.51-58.55v42.98L57.02 99.78l-.54.28 -36.67-21.21v0Zm215.86 0L132.22 20.34v42.98l66.27 36.51 .53.28 36.66-21.26v0Z"/><path fill="#1C78C0" d="M123.36 214.84l-62.02-34.15v-67.58l62.01 35.79v65.93 0Zm8.88 0l62.01-34.11V113.1l-62.02 35.79v65.93ZM65.48 105.29l62.3-34.25 62.26 34.24 -62.27 35.93 -62.31-35.94v0Z"/></svg>
